Numix-Light-GalliumOS/scalable/places/user-desktop-symbolic.svg

<?xml version="1.0" encoding="UTF-8" standalone="no"?>
<svg
   xmlns:dc="http://purl.org/dc/elements/1.1/"
   xmlns:cc="http://creativecommons.org/ns#"
   xmlns:rdf="http://www.w3.org/1999/02/22-rdf-syntax-ns#"
   xmlns:svg="http://www.w3.org/2000/svg"
   xmlns="http://www.w3.org/2000/svg"
   xmlns:sodipodi="http://sodipodi.sourceforge.net/DTD/sodipodi-0.dtd"
   xmlns:inkscape="http://www.inkscape.org/namespaces/inkscape"
   viewBox="0 0 16.0002 16"
   style="enable-background:new"
   id="svg2"
   version="1.1"
   inkscape:version="0.48.4 r9939"
   width="100%"
   height="100%"
   sodipodi:docname="user-desktop-symbolic.svg">
  <metadata
     id="metadata14">
    <rdf:RDF>
      <cc:Work
         rdf:about="">
        <dc:format>image/svg+xml</dc:format>
        <dc:type
           rdf:resource="http://purl.org/dc/dcmitype/StillImage" />
      </cc:Work>
    </rdf:RDF>
  </metadata>
  <defs
     id="defs12" />
  <sodipodi:namedview
     pagecolor="#ffffff"
     bordercolor="#666666"
     borderopacity="1"
     objecttolerance="10"
     gridtolerance="10"
     guidetolerance="10"
     inkscape:pageopacity="0"
     inkscape:pageshadow="2"
     inkscape:window-width="1920"
     inkscape:window-height="1023"
     id="namedview10"
     showgrid="true"
     inkscape:zoom="67.78"
     inkscape:cx="10.710124"
     inkscape:cy="4.697195"
     inkscape:window-x="0"
     inkscape:window-y="28"
     inkscape:window-maximized="1"
     inkscape:current-layer="svg2">
    <inkscape:grid
       type="xygrid"
       id="grid3833" />
  </sodipodi:namedview>
  <path
     style="fill:#353535"
     inkscape:connector-curvature="0"
     id="path8"
     d="M 3.9999999,4 4.0002,9 c 4e-5,1 1,1 1,1 l 3.9997999,0 c 1,0 1,-1 1,-1 l -2.002e-4,-4 -2,-2 -2.9995998,0 c 0,0 -1.0002401,0 -1.0002,1 z m 1,0 2,0 0,2 2,0 0,3 L 5.0002,9 z"
     sodipodi:nodetypes="sscsccccsccccccc" />
  <path
     style="fill:#353535;fill-opacity:1;stroke:none"
     d="m 6,13 -2,2 c -1,1 -1,1 0,1 l 8,0 c 1,0 1,0 0,-1 l -2,-2 0,-1 -4,0 z"
     id="path3838"
     inkscape:connector-curvature="0"
     sodipodi:nodetypes="ccccccccc" />
  <path
     style="fill:#353535;fill-opacity:1;stroke:none"
     d="M 2 0 C 0.892 0 0 0.892 0 2 L 0 11 C 0 12.108 0.892 13 2 13 L 14 13 C 15.108 13 16 12.108 16 11 L 16 2 C 16 0.892 15.108 0 14 0 L 2 0 z M 2 2 L 14 2 L 14 11 L 2 11 L 2 2 z "
     id="rect3831" />
</svg>

<svg xmlns="http://www.w3.org/2000/svg" viewBox="0 0 16.0002 16" style="enable-background:new">
 <path d="m 4 4 0 5 c 0 1 1 1 1 1 l 4 0 c 1 0 1 -1 1 -1 l 0 -4 -2 -2 -3 0 c 0 0 -1 0 -1 1 z m 1 0 2 0 0 2 2 0 0 3 l -4 0 z" style="fill:#353535"/>
 <path d="m 6 13 -2 2 c -1 1 -1 1 0 1 l 8 0 c 1 0 1 0 0 -1 l -2 -2 0 -1 -4 0 z" style="fill:#353535;fill-opacity:1;stroke:none"/>
 <path d="m 2 0 c -1.108 0 -2 0.892 -2 2 l 0 9 c 0 1.108 0.892 2 2 2 l 12 0 c 1.108 0 2 -0.892 2 -2 l 0 -9 c 0 -1.108 -0.892 -2 -2 -2 l -12 0 z m 0 2 l 12 0 l 0 9 l -12 0 l 0 -9 z" style="fill:#353535;fill-opacity:1;stroke:none"/>
</svg>
